X: 27465
T: Molly MacAlpin
R: barndance
M: 4/4
K: Dminor
|:de|"Dm" f2 ed d2 cd|f2 ed "C"c2 fg|"F"a2 ga gfed|"Bb"d4 d2 ga|
"Gm" b2 bc' "F"a2 ab|"C"gfga "Bb"d'3 c'|"Dm"d'c'ag "C"gfdc|"Dm"d6:|
|:ab|"F"c'aga c'2 c'd'|"Am"c'aga c'2 ac'|"Dm"d'c'd'e' "C"d'c'ac'|"Bb"d'6 d'c'|
"Gm"b2 bc' "F"a2 ab|"C"gfga "Bb"d'3 c'|"Dm"d'c'ag "C"gfdc|"Dm"d6:|

